X:1
T:Musikalische Jugendbibliothek
T:Anton Diabelli
T:Sonatine für Pianoforte und Guitare (Op. 68)
C:Anton Diabelli
%%score ( 1 2 ) { 3 | 4 }
L:1/8
Q:1/8=78
M:2/4
K:A
V:1 treble-8 nm="Gitarre" snm="Git."
V:2 treble-8 
V:3 treble nm="Klavier" snm="Klav."
V:4 bass 
V:1
 z |!p! A,4 | C2 z A, | z [Be] z [ce] | [GB]/4e/4^d/4e/4 B/4e/4G/4B/4 E, z | z [df] [ce][Bd] | %6
 [Ac] z z/ A/e/A/ |!f! [Adf] z z/ G/B/e/ | z!p!"^Dolce" c/>d/ e/f/g/a/ | ^a/b/=a/g/ f/e/d/B/ | %10
 A/e/c/e/ z/ e/c/e/ | z/ e/B/e/ z/ e/B/e/ | ^d/e/c/A/ =d/>c/B | ^d/e/c/A/ =d/>c/B | %14
 [Ac]!f![Acf]/>e/!p! ^d/f/e/d/ | e/^d/4e/4 f/4e/4g/4e/4 B/f/e/d/ | e/^d/c/B/ A/G/F/G/ | %17
 z [Ac] z [AB] | [GB] z z/ [AB]/[AB]/[AB]/ | [GB] z z/ [AB]/[AB]/[AB]/ | %20
 [GB]!ff![B,EGBe] [B,EGBe] z |!p! z [Bd] [^Ac][=A=c] |!p! [GB]2 z2 | z [ABf] z [GBe] | ^d z z2 | %25
 z [B=d][^Ac][=A=c] | [GB] z z [Be] | [Acf] z [ABf] z |!ff! z [E=G=ce] z/4 E/4G/4c/4 E/4G/4c/4e/4 | %29
!p! [=GB=f]/>e/d/>=c/ B/4G/4A/4B/4 c/4d/4e/4f/4 | [=G=c=g]/>=f/e/>d/ c/f/4e/4 d/4c/4B/4A/4 | %31
 [=F=G]/>A/G/>F/ E/4e/4=f/4e/4 d/4=c/4B/4A/4 | [=F=G]/>A/G/>F/ E/4=C/4G/4E/4 =c/4G/4e/4c/4 | %33
 [=c=g] z z2 | A z z2 | z/ =G/=c/e/ z/ G/B/=f/ | z/ _B/^c/e/ z/ B/c/e/ | z/ A/d/A/ z/ A/d/A/ | %38
 z/ ^D/A/=c/ z/ D/A/c/ | z/ ^G/B/e/ z/ A/=c/e/ | z/ G/B/e/ z/ A/=c/e/ | %41
 z/ [GBe]/z/"_cresc."[A=ce]/ z/ [GBe]/z/[Ace]/ |[K:A]!f! [GBe] z [GBe] z | [GBe] z e/B/G/B/ | %44
 E!ff![B,EGBe] !fermata!z |!p! z | A,4 | C2 z A, | z [Be] z [ce] | %49
 [GB]/4e/4^d/4e/4 B/4e/4G/4B/4 E, z | z [df] [ce][Bd] | [Ac] z z/ A/e/A/ |!f! [Adf] z z/ G/B/e/ | %53
!p! z c/>d/ e/f/g/a/ | ^a/b/=a/g/ f/e/d/B/ | A/e/c/e/ z/ e/c/e/ | z/ e/B/e/ z/ e/B/e/ | %57
 ^d/e/c/A/ =d/>c/B | ^d/e/c/A/ =d/>c/B | [Ac][ce] [Ad][A^d] | %60
 [Ace]/a/4g/4 f/4e/4d/4c/4!p! B/4A/4G/4F/4 E/4D/4C/4B,/4 | A,/4A/4G/4A/4 B/4A/4c/4A/4 z/ B/A/G/ | %62
 A/G/4A/4 B/4A/4c/4A/4 z/ B/A/G/ | A/G/F/E/ D/C/B,/C/ | z [FB] z [Bd] | [Ac] z [Bde]2 | %66
 [Ac]/e/^d/e/ [B=dg]2 | [ca][EAce] [EAce] |] %68
V:2
 x | z [df] [ce][Bd] | [Ac]2 x2 | G,2 A,2 | E,2 E, z | A,4 | A, z C2 | D z E,2 | A,2 z2 | x4 | %10
 A,2 A2 | G2 E2 | A,2 E,2 | A,2 E,2 | A,F, B,2 | E, z B, z | E,2 z2 | A,2 C2 | E, z B,2 | E z B,2 | %20
 E E,E, x | E,4 | E,2 z2 | z ^D z E | B, z z2 | E,4 | E, z G,2 | A,2 B,2 | =CC C2 | =C z z2 | %30
 =C z z2 | B, z =C z | B, z z z | E, z z2 | =F z z2 | =G,2 G,2 | =G,2 G,2 | =F,2 F,2 | =F,2 F,2 | %39
 E,2 E,2 | E,2 E,2 | E,E, E,E, |[K:A] E, z E, z | E, z E,2 | E,E, z | x | z [df] [ce][Bd] | %47
 [Ac]2 x2 | G,2 A,2 | E,2 E, z | A,4 | A, z C2 | D z E,2 | A,2 z2 | x4 | A,2 A2 | G2 E2 | A,2 E,2 | %58
 A,2 E,2 | A,=G F=F | E/ z/ z E,2 | A, z E,2 | A, z E,2 | A, z z2 | D2 E,2 | A, z E,2 | A,2 E,2 | %67
 A,A, A, |] %68
V:3
!p! c/>e/ | (AAAG) | A/(d/4c/4 B/4A/4G/4F/4) (E/A/c/e/) | d/>B/e/>d/ (c/4e/4a/4g/4 f/4e/4d/4c/4) | %4
 B2 z c/>e/ | A[Aa] [Aa]/>g/ g | (a/4b/4a/4g/4 a/4b/4c'/4d'/4) (e'/4d'/4c'/4b/4 a/4g/4f/4e/4) | %7
!f! (g/4f/4e/4d/4 c/4B/4d/4B/4) (A/4G/4F/4E/4 ^D/4E/4F/4G/4) | %8
 A/!p![CE]/[CE]/[CE]/ [CE]/[CE]/[CE]/[CE]/ | [DE]/[DE]/[DE]/[DE]/ !//![DE]2 | %10
 [CE]/ z/ c/>d/ e/f/g/a/ | ^a/b/=a/g/ f/e/d/B/ |!pp! z/ [Ac]/z/[Ac]/ z/ [Bd]/z/[Bd]/ | %13
 z/ [Ac]/z/[Ac]/ z/ [Bd]/z/[Bd]/ | [Ac]!f![Aca]!p! z/ [AB]/[GB]/[FB]/ | %15
 z/ [GB]/[GB]/[GB]/ z/ [AB]/[GB]/[FB]/ | %16
 [EGB]/[^DFB]/[CEA]/[B,^DG]/ [A,CF]/[G,B,E]/[F,A,^D]/[G,B,E]/ | %17
 F/4G/4A/4B/4 ^d/4c/4B/4A/4 G/4F/4^E/4F/4 =E/4^D/4C/4D/4 | E z ^d/a/g/f/ | e z ^D/A/G/F/ | %20
 E!f![B,G][G,E]!p! G/>B/ | EEE^D |!p! E/F/4E/4 ^D/4E/4G/4B/4 e/^d/c/B/ | %23
 z/ a/4f/4 ^d/4B/4A/4F/4 G/4B/4e/4d/4 c/4B/4A/4G/4 | F z z g/>b/ | e[Ee] [Ee]/>^d/ d | %26
 e/4g/4b/4a/4 g/4b/4e'/4^d'/4 c'/4b/4a/4g/4 f/4e/4g/4e/4 | %27
 ^d/4c/4a/4g/4 f/4e/4d/4c/4 B/4A/4G/4F/4 E/4^D/4C/4D/4 | %28
!f! E/[=G,=CE]/ z/ [G,CE]/ z/ [G,CE]/z/[G,CE]/ | %29
!p! z/ [=G,B,D=F]/z/[G,B,DF]/ z/ [G,B,DF]/z/[G,B,DF]/ | z/ [=G,=CE]/z/[G,CE]/ z/ [G,CE]/z/[G,CE]/ | %31
 z/ [=G,D=F]/z/[G,DF]/ z/ [G,=CE]/z/[G,CE]/ | z/ [=G,D=F]/z/[G,DF]/ [G,=CE] z | %33
 z/4 =G/4A/4B/4 =c/4d/4e/4=f/4 =g/4^f/4a/4g/4 =f/4e/4d/4c/4 | %34
 B/4A/4G/4A/4 e/4d/4c/4d/4 =g/4=f/4e/4f/4 b/4a/4^g/4a/4 | %35
 =g/4e'/4b/4d'/4 =c'/4b/4a/4g/4 f/4g/4b/4a/4 g/4=f/4e/4d/4 | %36
 z/4 c/4z/4e/4z/4=g/4z/4a/4 z/4 ^a/4z/4g/4z/4=f/4z/4e/4 | %37
 z/4 d/4z/4=f/4z/4a/4z/4c'/4 z/4 d'/4z/4e'/4z/4=f'/4z/4d'/4 | %38
 z/4 =c'/4z/4b/4z/4a/4z/4g/4 z/4 a/4z/4=c/4z/4B/4z/4A/4 | %39
 z/4 G/4z/4B/4z/4e/4z/4B/4 z/4 A/4z/4=c/4z/4e/4z/4c/4 | %40
 z/4 G/4z/4B/4z/4e/4z/4B/4 z/4 A/4z/4=c/4z/4e/4z/4c/4 | %41
"_cresc." z/4 B/4z/4E/4z/4=c/4z/4E/4 z/4 B/4z/4E/4z/4c/4z/4E/4 | %42
[K:A]!f! z/4 E/4F/4G/4A/4B/4c/4^d/4 e/f/4g/4a/4b/4c'/4^d'/4 | .e'/.b/.g/.b/ .e/.B/.G/.B/ | %44
 E!ff![egbe'] !fermata!z |!p! c/>e/ | AAAG | A/(d/4c/4B/4A/4G/4F/4) (E/A/c/e/) | %48
 d/>B/e/>d/ (c/4e/4a/4g/4f/4e/4d/4c/4) | B2 z c/>e/ | A[Aa] [Aa]/>g/ g | %51
 (a/4b/4a/4g/4 a/4b/4c'/4d'/4 e'/4d'/4c'/4b/4 a/4g/4f/4e/4) | %52
!f! (g/4f/4e/4d/4 c/4B/4d/4B/4) (A/4G/4F/4E/4 ^D/4E/4F/4G/4) | %53
 A/!p![CE]/[CE]/[CE]/ [CE]/[CE]/[CE]/[CE]/ | [DE]/[DE]/[DE]/[DE]/ !//![DE]2 | %55
 [CE]/ z/ c/>d/ e/f/g/a/ | ^a/b/=a/g/ f/e/d/B/ |!pp! z/ [Ac]/z/[Ac]/ z/ [Bd]/z/[Bd]/ | %58
 z/ [Ac]/z/[Ac]/ z/ [Bd]/z/[Bd]/ |!f! z/ [Ac]/z/[Aca]/ z/ [Ada]/z/[A=c^da]/ | %60
 [A^cea] z!p! [B,DG] z | [CA]/[CE]/[CE]/[CE]/ z/ [DE]/[CE]/[B,E]/ | %62
 z/ [CE]/[CE]/[CE]/ z/ [DE]/[CE]/[B,E]/ | %63
 [^CE]/[I:staff +1][^G,B,E]/[^F,A,D]/[E,^G,^C]/ [D,^F,B,]/[^C,E,A,]/[B,,D,^G,]/[^C,E,A,]/ | %64
[I:staff -1] (B,/4C/4D/4E/4 F/4G/4A/4B/4) (A/4G/4F/4E/4 ^D/4E/4F/4G/4) | A z G/=d/c/B/ | %66
 A z (g/d'/c'/b/) | a!ff! [eac'][CEA] |] %68
V:4
 z | z A,A,,A, | A,,2 z [A,CE] | [G,B,E]2 [A,CE]2 | [E,G,B,E]2 z2 | z A,A,,A, | A,, z [C,E,]2 | %7
 [D,F,] z [E,B,]2 | [A,C]/ z/ z A, z | G,E, z [E,,E,] | %10
 A,,/[A,CE]/[A,CE]/[A,CE]/ [A,CE]/[A,CE]/[A,CE]/[A,CE]/ | %11
 [G,B,DE]/[G,B,DE]/[G,B,DE]/[G,B,DE]/ !//![G,B,DE]2 | A,/E/A,/E/ G,/E/E,/E/ | %13
 G,/E/A,/E/ G,/E/E,/E/ | A, [F,,F,] [B,,B,]2 | E, z [B,,B,]2 | E,2 E,,2 | [A,,C,F,]2 [B,,F,A,]2 | %18
 [E,G,]/B,/^A,/B,/ [B,,F,=A,]2 | [E,G,]/B,/^A,/B,/ [B,,F,=A,]2 | [E,G,] [E,,E,][E,,E,] z | %21
 z E,E,,E, | E,,2 z E, | ^D,2 E,2 | B,,/4B,/4^A,/4B,/4 F,/4B,/4^D,/4F,/4 B,, z | z E,E,,E, | %26
 E,, z ^G,,2 | A,, z B,,2 | [=C,,=C,][C,,C,] [C,,C,][C,,C,] | [=C,,=C,][C,,C,] [C,,C,][C,,C,] | %30
 [=C,,=C,][C,,C,] [C,,C,][C,,C,] | [B,,,B,,][B,,,B,,] [=C,,=C,][C,,C,] | %32
 [B,,,B,,][B,,,B,,] [=C,,=C,] z | [E,=G,=C]4 | [=F,A,] z z2 | [=G,=CE]2 [G,B,=F]2 | %36
 [=G,_B,CE]/[G,B,CE]/[G,B,CE]/[G,B,CE]/ [G,B,CE]/[G,B,CE]/[G,B,CE]/[G,B,CE]/ | %37
 [=F,A,D]/[F,A,D]/[F,A,D]/[F,A,D]/ [F,A,D]/[F,A,D]/[F,A,D]/[F,A,D]/ | %38
 [=F,A,^D]/[F,A,D]/[F,A,D]/[F,A,D]/ [F,A,D]/[F,A,D]/[F,A,D]/[F,A,D]/ | E,/E/B,/^G,/ E,/E/=C/A,/ | %40
 E,/E/B,/G,/ E,/E/=C/A,/ | E,/G,/E,/A,/ E,/G,/E,/A,/ |[K:A] E, z E,/F,/4G,/4A,/4B,/4C/4^D/4 | %43
 .E/.B,/.G,/.B,/ .E,/.B,,/.G,,/.B,,/ | E,,[E,,G,,B,,E,] !fermata!z | z | z A,A,,A, | %47
 A,,2 z [A,CE] | [G,B,E]2 [A,CE]2 | [E,G,B,E]2 z2 | z A,A,,A, | A,, z [C,E,]2 | [D,F,] z [E,B,]2 | %53
 [A,C]/ z/ z!p! A, z | .G,.E, z [E,,E,] | A,,/[A,CE]/[A,CE]/[A,CE]/ [A,CE]/[A,CE]/[A,CE]/[A,CE]/ | %56
 [G,B,DE]/[G,B,DE]/[G,B,DE]/[G,B,DE]/ !//![G,B,DE]2 | A,/E/A,/E/ G,/E/E,/E/ | %58
 A,/E/A,/E/ G,/E/E,/E/ | [A,,A,][=G,,=G,][F,,F,][=F,,=F,] | [E,,E,] z [E,,E,] z | A,, z [E,,E,]2 | %62
 A,, z [E,,E,]2 | A,,2 A,,,2 | [D,,D,]2 [E,,E,]2 | [A,,C,]/E,/^D,/E,/ [E,,E,]2 | %66
 [A,,C,] z [E,,E,]2 | A,,[A,,,A,,] [A,,,A,,] |] %68

